svgs/mbank.svg

<svg id="vector" xmlns="http://www.w3.org/2000/svg" width="192" height="192" viewBox="0 0 192 192"><path fill="#00000000" d="M170,136V89C170,70.775 155.225,56 137,56V56C118.775,56 104,70.775 104,89V136" stroke-width="12" stroke="#000000" stroke-linecap="round" id="path_0"/><path fill="#00000000" d="M104,136V89C104,70.775 89.225,56 71,56V56C52.775,56 38,70.775 38,89V136" stroke-width="12" stroke="#000000" stroke-linecap="round" id="path_1"/><path fill="#000000" d="M32,136C32,139.314 34.686,142 38,142C41.314,142 44,139.314 44,136H32ZM38,56H44C44,52.686 41.314,50 38,50V56ZM22,50C18.686,50 16,52.686 16,56C16,59.314 18.686,62 22,62V50ZM44,136V56H32V136H44ZM38,50H22V62H38V50Z" id="path_2"/></svg>

<svg width="192" height="192" viewBox="0 0 192 192" fill="none" xmlns="http://www.w3.org/2000/svg"><path d="M170 136V89c0-18.225-14.775-33-33-33v0c-18.225 0-33 14.775-33 33v47m0 0V89c0-18.225-14.775-33-33-33v0c-18.225 0-33 14.775-33 33v47" stroke="#000" stroke-width="12" stroke-linecap="round"/><path d="M32 136a6 6 0 1 0 12 0H32Zm6-80h6a6 6 0 0 0-6-6v6Zm-16-6a6 6 0 0 0 0 12V50Zm22 86V56H32v80h12Zm-6-86H22v12h16V50Z" fill="#000"/></svg>
